packages/icons/svg/User_Card_Funding_64px.svg

<svg xmlns="http://www.w3.org/2000/svg" viewBox="0 0 64 64"><path d="M57 13H7a2 2 0 00-2 2v34a2 2 0 002 2h50a2 2 0 002-2V15a2 2 0 00-2-2zm-1 35H8V16h48z"/><path d="M13.5 34.5A1.5 1.5 0 0015 36h1.42A10.52 10.52 0 0033 40a1.5 1.5 0 10-2-2.3A7.52 7.52 0 0119.79 36H26a1.5 1.5 0 000-3h-7.3a6.29 6.29 0 010-2H26a1.5 1.5 0 000-3h-6.21a7.52 7.52 0 0110.9-2 1.5 1.5 0 001.81-2.39 10.42 10.42 0 00-6.36-2.14A10.53 10.53 0 0016.42 28H15a1.5 1.5 0 000 3h.68a8.36 8.36 0 000 2H15a1.5 1.5 0 00-1.5 1.5zM41 38h10a1 1 0 001-1V27a1 1 0 00-1-1H41a1 1 0 00-1 1v10a1 1 0 001 1zm6-2v-3h3v3zm3-5h-3v-3h3zm-8-3h3v8h-3z"/></svg>

<svg xmlns="http://www.w3.org/2000/svg" viewBox="0 0 64 64"><defs></defs><g id="Icon"><path  d="M57,13H7a2,2,0,0,0-2,2V49a2,2,0,0,0,2,2H57a2,2,0,0,0,2-2V15A2,2,0,0,0,57,13ZM56,48H8V16H56Z"/><path  d="M13.5,34.5A1.5,1.5,0,0,0,15,36h1.42A10.52,10.52,0,0,0,33,40,1.5,1.5,0,1,0,31,37.7,7.52,7.52,0,0,1,19.79,36H26a1.5,1.5,0,0,0,0-3H18.7a6.29,6.29,0,0,1,0-2H26a1.5,1.5,0,0,0,0-3H19.79a7.52,7.52,0,0,1,10.9-2,1.5,1.5,0,0,0,1.81-2.39,10.42,10.42,0,0,0-6.36-2.14A10.53,10.53,0,0,0,16.42,28H15a1.5,1.5,0,0,0,0,3h.68a8.36,8.36,0,0,0,0,2H15A1.5,1.5,0,0,0,13.5,34.5Z"/><path  d="M41,38H51a1,1,0,0,0,1-1V27a1,1,0,0,0-1-1H41a1,1,0,0,0-1,1V37A1,1,0,0,0,41,38Zm6-2V33h3v3Zm3-5H47V28h3Zm-8-3h3v8H42Z"/></g></svg>
